X:1
T:Title
%%score 1 { 2 | 3 }
L:1/8
Q:1/4=98
M:4/4
K:Db
V:1 treble nm="Grand Piano, Soprano"
V:2 bass nm="Choir Pad, Kochi, F. M. Ferrell, 1912"
V:3 bass 
V:1
 D2 [DF]2- [DF][DE][DF][EG] | [FA]>[GB] [FA]6 | [Fd]2 [Gc]2- [Gc][GB][FA][GB] | [FA]>[EG] [DF]6 | %4
w: By~F.~M.~Ferrell,~1912 * * * * *||||
 D2 [DF]2- [DF][D_F][D=F][EG] | [FA]>[GB] [FA]6 | A2 [Ge]2- [Ge][Gf][Ge][Gd] | %7
w: |||
 [Gd]>[GB] A2 [=GB]2 A2 | [FA]2 [Af]2- [Af][Ge][Fd][Ac] | [GB]>[Gd] [FA]6 | %10
w: |||
 [Fd]2 [Gc]2- [Gc][GB][FA][GB] | [FA]>[EG] [DF]6 | [FA]2 [Af]2- [Af][Ge][Fd][Ac] | %13
w: |||
 [GB]>[Gd] [FA]6 | [Fd]2 [Gc]2- [Gc][GB][FA][DF] | [EG]>[CE] D6- | D2 z2 z4 |] %17
w: ||||
V:2
 F,2 A,2- A,=G, A,2 | D2 D2 D2 D2 | A,2[K:bass] A,2- A,A, A,2 | A,2 A,2 A,2 A,2 | %4
 F,2 A,2- A,=G, A,2 | D2 D2 D2 D2 | D2[K:bass] B,2- B,B, B,2 | E2[K:treble] C2 D2 C2 | %8
 D2 D2- DD A,2 | D2 D2 D2 D2 | A,2 A,2- A,A, A,2 | A,2 A,2 A,2 A,2 | D2 D2- DD A,2 | D2 D2 D2 D2 | %14
 A,2 A,2- A,A,A,A, | A,>G, F,6- | F,2 z2 z4 |] %17
V:3
 D,2 D,2- D,D, D,2 | D,2 D,2 A,,2 D,2 | D,2 A,,2- A,,A,, A,,2 | A,,2 D,2 D,2 D,2 | %4
 D,2 D,2- D,D, D,2 | D,2 D,2 A,,2 D,2 | F,2 E,2- E,E, E,2 | E,2 [A,,A,]2 E,2 [A,,A,]2 | %8
 D,2 D,2- D,D, D,2 | D,2 D,2 A,,2 D,2 | D,2 A,,2- A,,A,, A,,2 | A,,2 D,2 D,2 D,2 | %12
 D,2 D,2- D,D, D,2 | D,2 D,2 A,,2 D,2 | D,2 A,,2- A,,A,,A,,A,, | A,,>A,, D,6- | D,2 z2 z4 |] %17

